X:1
T:The Dawning of the Day
M:4/4
L:1/4
K:Eb
 B,| E E E G| B B Bc/2-B/2| G F E D| E3| B| e d c c| B G F E/2F/2|\
 G B c c| B3| B| e d c c| B G F E/2F/2| G B c c| B3| B,| E E EG/2-A/2|\
 B/2B/2 B B c/2B/2| G F E D| E3||
